lib/preview/nrk-logo-preview-nrk-yr-radio-on-dark.svg

<svg width="54" height="20" viewBox="0 0 54 20" fill="none" xmlns="http://www.w3.org/2000/svg">
<path d="M-6.10352e-05 15.9824V3.98351H3.93713V15.9824H-6.10352e-05ZM9.29375 5.8932L11.558 15.9824H7.24911L4.54543 3.98351H6.96212C7.51629 3.97632 8.054 4.17167 8.47444 4.53281C8.89556 4.8788 9.18489 5.35912 9.29375 5.8932ZM12.1495 15.9824V3.98351H16.0866V15.9824H12.1495ZM19.0604 8.54652C18.6361 8.55066 18.2187 8.43965 17.8525 8.22539C17.4912 8.01654 17.191 7.71638 16.9822 7.35502C16.7677 6.98875 16.6567 6.57118 16.6609 6.14674C16.656 5.72488 16.7672 5.3098 16.9822 4.94685C17.1933 4.58941 17.493 4.29252 17.8525 4.08494C18.2188 3.87092 18.6362 3.75994 19.0604 3.76381C19.4821 3.75926 19.8971 3.87035 20.2602 4.08494C20.616 4.29433 20.9126 4.59098 21.122 4.94685C21.3368 5.3099 21.4479 5.72492 21.4433 6.14674C21.4472 6.57115 21.3362 6.98865 21.122 7.35502C20.9148 7.7148 20.6179 8.0147 20.2602 8.22539C19.897 8.4404 19.4818 8.55151 19.0599 8.54652H19.0604ZM22.0516 15.9824V3.98351H25.9891V15.9824H22.0516ZM30.9737 10.5407C30.9848 10.5523 31.0692 10.6903 31.2271 10.9547C31.385 11.2191 31.5906 11.5571 31.8439 11.9687C32.0973 12.3801 32.3648 12.8167 32.6463 13.2784C32.9277 13.7402 33.1925 14.1768 33.4408 14.5882C33.688 14.9996 33.9697 15.4643 34.2857 15.9824H29.9598C29.6892 15.543 29.4441 15.1459 29.2244 14.791C29.0047 14.4361 28.7712 14.053 28.5238 13.6418C28.2758 13.2309 28.0305 12.831 27.7881 12.4419C27.5457 12.0528 27.3374 11.712 27.1632 11.4195C26.9882 11.1267 26.867 10.9295 26.7996 10.828C26.6325 10.5759 26.5336 10.2847 26.5126 9.98297C26.5294 9.69336 26.6225 9.4134 26.7827 9.17153C26.8503 9.05887 26.9742 8.85885 27.1545 8.57155C27.3347 8.28426 27.5459 7.94348 27.7881 7.54915C28.0303 7.15482 28.2756 6.75203 28.5238 6.3408C28.772 5.92957 29.0055 5.54366 29.2244 5.18313C29.4445 4.82297 29.6896 4.42301 29.9598 3.98324H34.2857L30.9396 9.44192C30.836 9.60399 30.7777 9.79077 30.7706 9.98297C30.7817 10.1847 30.8521 10.3787 30.9731 10.5407H30.9737Z" fill="white"/>
<ellipse cx="44.8571" cy="9.98232" rx="8.57143" ry="8.57143" fill="white"/>
<path d="M48.4903 8.12729H47.2391C47.0517 8.1298 46.8728 8.20535 46.7403 8.33788C46.6078 8.47042 46.5323 8.64946 46.5299 8.83684V10.651C46.7545 10.5515 46.9943 10.4906 47.2391 10.4707H48.6186C48.7837 10.4788 48.9488 10.4536 49.1039 10.3966C49.2591 10.3396 49.4012 10.252 49.5217 10.1389C49.6347 10.0183 49.7222 9.87615 49.7792 9.72103C49.8362 9.5659 49.8615 9.40092 49.8536 9.23584C49.8614 9.08552 49.8341 8.93542 49.7737 8.79751C49.7134 8.65961 49.6217 8.53767 49.506 8.44141C49.2136 8.22304 48.8549 8.11211 48.4903 8.12729Z" fill="#00B8F1"/>
<path d="M44.8569 1.12524C42.5079 1.12524 40.2551 2.0584 38.5941 3.71942C36.9331 5.38043 35.9999 7.63323 35.9999 9.98225C35.9999 12.3313 36.9331 14.5841 38.5941 16.2452C40.2551 17.9062 42.5079 18.8395 44.8569 18.8395C47.206 18.8395 49.4589 17.9064 51.12 16.2453C52.781 14.5842 53.7142 12.3314 53.7142 9.98225C53.7142 7.6332 52.7809 5.38038 51.1199 3.71938C49.4588 2.05838 47.206 1.12524 44.8569 1.12524ZM44.19 11.5871C44.1836 13.4793 42.8271 14.081 42.3097 14.3819L41.4182 13.3035L41.439 13.2932L41.4182 13.2686C41.705 13.1251 42.7698 12.5787 42.7698 11.7417V11.1099C42.6233 11.4074 41.8645 11.7442 41.3485 11.7528H41.2916C40.5574 11.7538 39.8493 11.4801 39.3068 10.9855C39.0211 10.7087 38.7965 10.3753 38.6473 10.0066C38.4981 9.63797 38.4275 9.24219 38.4402 8.84467V6.93672H39.8241V8.84467C39.8241 9.9546 40.5917 10.3589 41.3203 10.3691C41.9583 10.3603 42.7582 10.0837 42.7859 9.22876V6.93564H44.1886L44.19 11.5871ZM50.2003 12.7618C50.2767 12.8417 50.3726 12.9003 50.4785 12.9319C50.5845 12.9635 50.6968 12.9669 50.8045 12.9418L50.8025 14.089H49.963C49.9534 14.089 49.944 14.0907 49.9354 14.0907C49.9268 14.0907 49.9158 14.0907 49.9058 14.089H49.8748V14.0874C49.7112 14.0738 49.5574 14.004 49.4393 13.8899L47.806 11.8891H47.2405C47.0531 11.8916 46.874 11.9672 46.7415 12.0998C46.6091 12.2324 46.5336 12.4115 46.5312 12.5989V14.089H45.1127V8.83667C45.1134 8.27245 45.3378 7.73152 45.7367 7.33242C46.1355 6.93333 46.6763 6.70859 47.2405 6.7075H48.4917C49.1871 6.69062 49.8666 6.91679 50.4132 7.34707C50.6887 7.5771 50.9091 7.86602 51.0581 8.19254C51.2072 8.51906 51.281 8.87487 51.2743 9.23372C51.2822 9.58544 51.2202 9.93524 51.0918 10.2628C50.9634 10.5903 50.7712 10.8891 50.5263 11.1417C50.2181 11.4472 49.8363 11.6678 49.4178 11.7824C49.4178 11.7824 49.8967 12.4366 50.2003 12.7607V12.7618Z" fill="#00B8F1"/>
</svg>

<svg xmlns="http://www.w3.org/2000/svg" viewBox="0 0 54 20"><path fill="#fff" d="M0 15.982V3.984h3.937v11.998H0ZM9.294 5.893l2.264 10.09H7.249l-2.704-12h2.417a2.276 2.276 0 0 1 1.512.55c.422.346.71.826.82 1.36Zm2.855 10.09v-12h3.938v12h-3.938Zm6.911-7.436a2.382 2.382 0 0 1-2.4-2.4 2.302 2.302 0 0 1 .322-1.2 2.41 2.41 0 0 1 3.278-.862c.356.21.653.506.862.862.215.363.326.778.321 1.2a2.4 2.4 0 0 1-1.183 2.079 2.303 2.303 0 0 1-1.2.32Zm2.992 7.435V3.984h3.937v11.998h-3.937Zm8.922-5.441c.01.011.095.15.253.414s.364.602.617 1.014a339.194 339.194 0 0 1 1.597 2.62c.247.41.529.875.845 1.393H29.96c-.27-.439-.516-.836-.736-1.191-.22-.355-.453-.738-.7-1.15-.248-.41-.494-.81-.736-1.2-.242-.388-.45-.729-.625-1.022-.175-.292-.296-.49-.363-.591a1.75 1.75 0 0 1-.287-.845c.016-.29.11-.57.27-.811.067-.113.191-.313.371-.6a182.067 182.067 0 0 0 1.37-2.23l.7-1.159.736-1.2h4.326L30.94 9.442a1.078 1.078 0 0 0-.17.541c.012.202.082.396.203.558Z"/><circle cx="44.857" cy="9.982" r="8.571" fill="#fff"/><path fill="#00B8F1" d="M48.49 8.127h-1.25a.719.719 0 0 0-.71.71v1.814c.224-.1.464-.16.71-.18h1.379a1.232 1.232 0 0 0 .903-.332 1.233 1.233 0 0 0 .332-.903.968.968 0 0 0-.348-.795 1.587 1.587 0 0 0-1.016-.314Z"/><path fill="#00B8F1" d="M44.857 1.125a8.857 8.857 0 1 0 0 17.714 8.857 8.857 0 0 0 0-17.714Zm-.667 10.462c-.006 1.892-1.363 2.494-1.88 2.795l-.892-1.079.021-.01-.02-.024c.286-.144 1.35-.69 1.35-1.527v-.632c-.146.297-.904.634-1.42.643h-.057a2.94 2.94 0 0 1-1.985-.768 2.853 2.853 0 0 1-.867-2.14V6.937h1.384v1.908c0 1.11.768 1.514 1.496 1.524.638-.009 1.438-.285 1.466-1.14V6.936h1.403l.001 4.651Zm6.01 1.175a.637.637 0 0 0 .604.18l-.002 1.147h-.839l-.028.002c-.008 0-.02 0-.03-.002h-.03v-.002a.712.712 0 0 1-.436-.197l-1.633-2h-.566a.72.72 0 0 0-.709.709v1.49h-1.418V8.837a2.132 2.132 0 0 1 2.127-2.13h1.252a2.99 2.99 0 0 1 1.921.64 2.399 2.399 0 0 1 .861 1.887 2.656 2.656 0 0 1-.748 1.908 2.52 2.52 0 0 1-1.108.64s.479.655.782.979Z"/></svg>
